X:1
T: Tea Gardens
C:
R:Jig
Q:180
K:G
M:6/8
L:1/16
d2^c2d2 b4a2|g4d2 B4d2|c2B2c2 e4c2|A6 A4G2|F2D2F2 A4d2|f4d2 A4B2|c2B2c2 e2d2c2|B6 B2c2^c2|
d2^c2d2 d2b2a2|g4d2 B2c2d2|c2B2c2 e2d2c2|A6 A4G2|F2D2F2 A4d2|f4d2 A4B2|c2B2c2 d2f2a2|g6-g4D2|
B,2D2G2 B2G2D2|B,2D2G2 B2d2g2|e2^d2e2 B4=d2|c6 c4B2|A2B2c2 A2B2c2|a4g2 f4e2|d2^c2d2 e2d2=c2|B6d6|
B,2D2G2 B2G2D2|B,2D2G2 B2d2g2|e2^d2e2 B4=d2|c6 c4B2|A2B2c2 A2B2c2|a4g2 f4e2|d2^c2d2 d2e2f2|g6g6||
